icons/xray_fill.svg

<svg width="48" height="48" viewBox="0 0 48 48" fill="none" xmlns="http://www.w3.org/2000/svg">
<path fill-rule="evenodd" clip-rule="evenodd" d="M28.5 8.5C28.5 10.9853 26.4853 13 24 13C21.5147 13 19.5 10.9853 19.5 8.5C19.5 6.01472 21.5147 4 24 4C26.4853 4 28.5 6.01472 28.5 8.5ZM30 34H25.2645L26.0082 42.1811C26.105 43.246 27.0224 44.0464 28.0906 43.998C29.1589 43.9495 30 43.0693 30 42V34ZM22.7355 34H18V42C18 43.0693 18.8412 43.9495 19.9094 43.998C20.9776 44.0464 21.895 43.246 21.9918 42.1811L22.7355 34ZM35.9555 14H36.0463C36.0161 13.9993 35.9859 13.9993 35.9555 14ZM11.954 14C11.9839 13.9993 12.0138 13.9993 12.0438 14H11.954Z" fill="black"/>
<path fill-rule="evenodd" clip-rule="evenodd" d="M11 15C10.4477 15 10 15.4477 10 16V31C10 31.5523 10.4477 32 11 32H37C37.5523 32 38 31.5523 38 31V16C38 15.4477 37.5523 15 37 15H11ZM23 17V18.5H22.5C21.5691 18.5 20.5591 18.8008 19.8458 19.0602C19.4755 19.1948 19.1567 19.3291 18.9298 19.4299C18.816 19.4805 18.7245 19.5231 18.6601 19.5536C18.6279 19.5689 18.6025 19.5812 18.5844 19.59L18.5629 19.6006L18.5564 19.6038L18.5542 19.6049L18.5531 19.6054C18.5529 19.6055 18.5528 19.6056 19 20.5C19.4472 21.3944 19.4471 21.3945 19.447 21.3945L19.4487 21.3937L19.4613 21.3875C19.4732 21.3817 19.4922 21.3725 19.5176 21.3605C19.5685 21.3363 19.6449 21.3007 19.7421 21.2576C19.937 21.1709 20.212 21.0552 20.5292 20.9398C21.1909 20.6992 21.9309 20.5 22.5 20.5H23V22.5H22.2C21.0027 22.5 19.7465 23.1358 18.9067 23.6448C18.4612 23.9148 18.0788 24.1833 17.8079 24.3839C17.6719 24.4847 17.5627 24.5693 17.4863 24.6297C17.448 24.66 17.4179 24.6843 17.3966 24.7016L17.3713 24.7223L17.3638 24.7285L17.3614 24.7305L17.3605 24.7312C17.3603 24.7314 17.3598 24.7318 18 25.5C18.6402 26.2682 18.6401 26.2683 18.6399 26.2684L18.6426 26.2663L18.6582 26.2535C18.673 26.2415 18.6961 26.2228 18.727 26.1984C18.7888 26.1495 18.8812 26.0778 18.9984 25.9911C19.2337 25.8167 19.5638 25.5852 19.9433 25.3552C20.7535 24.8642 21.5973 24.5 22.2 24.5H23V26.6678C22.2986 26.865 21.6252 27.2103 21.0794 27.6016C20.6796 27.8883 20.3086 28.2276 20.0276 28.6006C19.7591 28.9572 19.5 29.4424 19.5 30H21.5C21.5 30.0043 21.4999 30.008 21.4998 30.0109C21.4997 30.0135 21.4995 30.0155 21.4995 30.0171C21.4993 30.0192 21.4993 30.0204 21.4994 30.0204C21.4995 30.0204 21.4999 30.0193 21.5007 30.0171C21.5059 30.0015 21.5297 29.9307 21.6252 29.8038C21.7556 29.6307 21.9657 29.4272 22.2449 29.227C22.8052 28.8252 23.4877 28.5464 24.032 28.5004C24.4937 28.5117 25.1478 28.7645 25.7243 29.1837C26.0071 29.3894 26.2259 29.6033 26.3641 29.7875C26.4653 29.9224 26.4921 29.9988 26.4987 30.0174L26.4995 30.0198C26.5 30.0212 26.5003 30.0219 26.5005 30.0219C26.501 30.0218 26.5 30.0145 26.5 30H28.5C28.5 29.4379 28.2324 28.9452 27.9641 28.5875C27.6803 28.2092 27.3054 27.8606 26.9007 27.5663C26.3675 27.1785 25.6989 26.8257 25 26.6391V24.5H26.1C26.8489 24.5 27.6186 24.8663 28.2631 25.3186C28.5735 25.5364 28.8285 25.7556 29.0048 25.9197C29.0925 26.0012 29.1594 26.0679 29.2026 26.1122C29.2241 26.1343 29.2397 26.1507 29.2488 26.1605L29.2571 26.1694C29.2569 26.1692 29.2567 26.169 30 25.5C30.7433 24.831 30.7431 24.8308 30.7429 24.8306L30.7414 24.829L30.7389 24.8262L30.7318 24.8184L30.7097 24.7946C30.6915 24.7751 30.6663 24.7485 30.6346 24.716C30.5711 24.6509 30.4809 24.5613 30.367 24.4553C30.1403 24.2444 29.814 23.9636 29.4119 23.6814C28.6314 23.1337 27.4511 22.5 26.1 22.5H25V20.5H25.75C26.4443 20.5 27.1193 20.7011 27.6432 20.9216C27.9003 21.0299 28.1092 21.1378 28.2509 21.2169C28.3215 21.2564 28.3747 21.2882 28.408 21.3087C28.4247 21.3189 28.4363 21.3263 28.4427 21.3304L28.4457 21.3323C28.4455 21.3322 28.4453 21.3321 29 20.5C29.5547 19.6679 29.5545 19.6678 29.5542 19.6676L29.5527 19.6666L29.5501 19.6649L29.5432 19.6604L29.5228 19.6472C29.5063 19.6366 29.484 19.6225 29.4562 19.6054C29.4007 19.5712 29.323 19.5249 29.2256 19.4706C29.0315 19.3622 28.7559 19.2201 28.4193 19.0784C27.7557 18.7989 26.8057 18.5 25.75 18.5H25.0009L25 17H23Z" fill="black"/>
</svg>

<svg
  xmlns="http://www.w3.org/2000/svg"
  width="24"
  height="24"
  viewBox="0 0 24 24"
  fill="none"
  stroke="currentColor"
  stroke-width="2"
  stroke-linecap="round"
  stroke-linejoin="round"
>
  <path
    fill-rule="evenodd"
    d="M28.5 8.5a4.5 4.5 0 1 1-9 0 4.5 4.5 0 0 1 9 0M30 34h-4.735l.743 8.181A2 2 0 0 0 30 42zm-7.265 0H18v8a2 2 0 0 0 3.992.181zm13.22-20h.091zm-24.001 0h.09z"
    clip-rule="evenodd"
  />
  <path
    fill-rule="evenodd"
    d="M11 15a1 1 0 0 0-1 1v15a1 1 0 0 0 1 1h26a1 1 0 0 0 1-1V16a1 1 0 0 0-1-1zm12 2v1.5h-.5c-.93 0-1.94.3-2.654.56a14 14 0 0 0-1.262.53l-.021.01-.007.004h-.002v.001L19 20.5l.447.895.002-.001.012-.006.057-.028q.077-.038.224-.102c.195-.087.47-.203.787-.318.662-.24 1.402-.44 1.971-.44h.5v2h-.8c-1.197 0-2.453.636-3.293 1.145a15 15 0 0 0-1.51 1.057l-.026.02-.007.006-.003.002v.001L18 25.5l.64.768.003-.002.015-.012.069-.056a12.459 12.459 0 0 1 1.216-.843c.81-.49 1.654-.855 2.257-.855h.8v2.168a6.3 6.3 0 0 0-1.92.934c-.4.286-.771.626-1.052.999-.269.356-.528.841-.528 1.399h2v.02-.003a.8.8 0 0 1 .125-.213c.13-.173.34-.377.62-.577.56-.402 1.243-.68 1.787-.727.462.012 1.116.265 1.692.684.283.205.502.42.64.604.101.134.128.21.135.23v.002l.002.002L26.5 30h2c0-.562-.268-1.055-.536-1.413a5 5 0 0 0-1.063-1.02A5.9 5.9 0 0 0 25 26.638V24.5h1.1c.749 0 1.519.366 2.163.819a7 7 0 0 1 .986.841l.008.01.743-.67.743-.67-.002-.001-.002-.003-.007-.008-.022-.023-.075-.079a9.053 9.053 0 0 0-1.223-1.035c-.78-.547-1.96-1.181-3.312-1.181H25v-2h.75c.694 0 1.37.201 1.893.422a6 6 0 0 1 .8.408l.003.002L29 20.5l.554-.832-.001-.001-.003-.002-.007-.005-.02-.013-.067-.042a8.163 8.163 0 0 0-1.037-.527c-.663-.28-1.613-.578-2.669-.578H25V17z"
    clip-rule="evenodd"
  />
</svg>
